X:1
T:The Heavenly Land
T:The Heavenly Land
T:William Batchelder Bradbury
T:Lewis T. Hartsough, 1858
T:Public Domain Courtesy of the Cyber Hymnal™
T:Public Domain Courtesy of the Cyber Hymnal™
C:William Batchelder Bradbury
Z:Public Domain
Z:Courtesy of the Cyber Hymnal™
%%score ( 1 2 ) ( 3 4 )
L:1/8
Q:1/4=105
M:6/8
K:Bb
V:1 treble 
V:2 treble 
V:3 bass 
V:4 bass 
V:1
 [DF] | [DB]2 [DB] [FB][EA][DB] | [Fc]2 [FA] F2 F | [EG]2 [GB] (AG)[EA] | [DB]3- [DB]2 [DF] | %5
w: 1.~I|love to think of the|heav’n- ly land Where|white- robed an- * gels|are; * Where|
w: 2.~I|love to think of the|heav’n- ly land, Where|my Re- deem- * er|reigns, * Where|
w: 3.~I|love to think of the|heav’n- ly land, The|saints’ e- ter- * nal|home. * Where|
w: 4.~I|love to think of the|heav’n- ly land, The|greet- ings there * we’ll|meet, * The|
w: 5.~I|love to think of the|heav’n- ly land, That|prom- ised land * so|fair, * Oh,|
 [DB]2 [DB] ([FB][EA])[DB] | [Fc]2 [FA] F2 F | [EG]2 [GB] (AG)[EA] | [DB]6 || %9
w: many a friend * is|ga- thered safe From|fear and toil * and|care.|
w: rap- turous songs * of|tri- umph rise, In|end- less, joy- * ous|strains.|
w: palms, and robes, * and|crowns ne’er fade, And|all our joys * are|one.|
w: harps— and songs * for-|ev- er ours— The|walks— the gold- * en|streets.|
w: how my rap- * tured|spir- it longs, To|be for- ev- * er|there.|
"^Refrain" [Bd]3 ([Bd][Ac])[GB] | [Fc]3 [Fc]3 | [DB]3 ([Bd][Ac])[GB] | [^FA]3 [FA]3 | %13
w: ||||
w: ||||
w: There’ll be * no|part- ing,|There’ll be * no|part- ing,|
w: ||||
w: ||||
 [EG]3 ([GB][FA])[EG] | [DF]3 [DB]2 [Fd] | [Ec]2 [Ec] [DB]2 [CA] | [DB]3- [DB]2 |] %17
w: ||||
w: ||||
w: There’ll be * no|part- ing, There’ll|be no part- ing|there. *|
w: ||||
w: ||||
V:2
 x | x6 | x3 F2 F | x3 F2 x | x6 | x6 | x3 F2 F | x3 F2 x | x6 || x6 | x6 | x6 | x6 | x6 | x6 | %15
 x6 | x5 |] %17
V:3
 [B,,F,] | [B,,F,]2 [B,,F,] [D,F,][C,F,][B,,F,] | [F,A,]2 [F,C] [F,A,]2 [D,B,] | %3
 [E,B,]2 [E,E] (CB,)[F,C] | [B,,B,]3- [B,,B,]2 [B,,F,] | [B,,F,]2 [B,,F,] ([D,F,][C,F,])[B,,F,] | %6
 [F,A,]2 [F,C] [F,A,]2 [D,B,] | [E,B,]2 [E,E] (CB,)[F,C] | [B,,B,]6 || [B,,F,]3 F,2 [D,B,] | %10
 [F,A,]3 [F,A,]3 | [G,D]3 [G,D]2 [G,D] | [D,D]3 [D,C]3 | [E,B,]3 [E,B,]2 [E,B,] | %14
 [B,,B,]3 [B,,B,]2 [B,,B,] | [E,G,]2 [E,G,] F,2 F, | [B,,F,]3- [B,,F,]2 |] %17
V:4
 x | x6 | x6 | x3 F,2 x | x6 | x6 | x6 | x3 F,2 x | x6 || x3 (B,,C,) x | x6 | x6 | x6 | x6 | x6 | %15
 x3 F,2 F, | x5 |] %17

